svg/fluentui-system-icons/ic_fluent_open_24_regular.svg

<svg width="24" height="24" viewBox="0 0 24 24" fill="none" xmlns="http://www.w3.org/2000/svg">
<path d="M6.24992 4.5C5.28344 4.5 4.49996 5.2835 4.49996 6.25V17.75C4.49996 18.7165 5.28344 19.5 6.24992 19.5H17.7496C18.7161 19.5 19.4996 18.7165 19.4996 17.75V13.75C19.4996 13.3358 19.8354 13 20.2496 13C20.6638 13 20.9995 13.3358 20.9995 13.75V17.75C20.9995 19.5449 19.5445 21 17.7496 21H6.24992C4.45504 21 3 19.5449 3 17.75V6.25C3 4.45507 4.45504 3 6.24992 3H10.2498C10.664 3 10.9998 3.33579 10.9998 3.75C10.9998 4.16421 10.664 4.5 10.2498 4.5H6.24992ZM12.9997 3.75C12.9997 3.33579 13.3355 3 13.7497 3H20.25C20.6642 3 21 3.33579 21 3.75V10.25C21 10.6642 20.6642 11 20.25 11C19.8358 11 19.5 10.6642 19.5 10.25V5.56074L14.28 10.7804C13.9871 11.0732 13.5123 11.0732 13.2194 10.7803C12.9265 10.4874 12.9265 10.0125 13.2194 9.71964L18.4395 4.5H13.7497C13.3355 4.5 12.9997 4.16421 12.9997 3.75Z" fill="#212121"/>
</svg>

<svg xmlns="http://www.w3.org/2000/svg" width="24" height="24"><path d="M6.25 4.5A1.75 1.75 0 0 0 4.5 6.25v11.5c0 .966.783 1.75 1.75 1.75h11.5a1.75 1.75 0 0 0 1.75-1.75v-4a.75.75 0 0 1 1.5 0v4A3.25 3.25 0 0 1 17.75 21H6.25A3.25 3.25 0 0 1 3 17.75V6.25A3.25 3.25 0 0 1 6.25 3h4a.75.75 0 0 1 0 1.5h-4ZM13 3.75a.75.75 0 0 1 .75-.75h6.5a.75.75 0 0 1 .75.75v6.5a.75.75 0 0 1-1.5 0V5.56l-5.22 5.22a.75.75 0 0 1-1.06-1.06l5.22-5.22h-4.69a.75.75 0 0 1-.75-.75Z"/></svg>
